assets/icon-map-pin.svg

<svg
  class="icon icon-accordion icon-map-pin"

  focusable="false"
  xmlns="http://www.w3.org/2000/svg"


  viewBox="0 0 20 20"
>
  <path d="M9.91038 18.5904L14.9458 9.80988C17.1744 5.9237 14.4213 1.03316 10.004 1.03316C5.61856 1.03316 2.85676 5.85475 5.01217 9.74644L9.91038 18.5904ZM10.004 0C4.84496 0 1.59264 5.67261 4.13039 10.2547L9.34236 19.6651C9.58751 20.1078 10.2108 20.1126 10.4625 19.6737L15.82 10.3316C18.4445 5.75498 15.2016 0 10.004 0Z" fill-rule="evenodd"/>
  <path d="M12.9997 6.79602C12.9997 8.5559 11.6011 9.98256 9.87597 9.98256C8.1508 9.98256 6.75228 8.5559 6.75228 6.79602C6.75228 5.03615 8.1508 3.60949 9.87597 3.60949C11.6011 3.60949 12.9997 5.03615 12.9997 6.79602ZM9.87597 8.9494C11.0418 8.9494 11.9869 7.9853 11.9869 6.79602C11.9869 5.60675 11.0418 4.64265 9.87597 4.64265C8.71015 4.64265 7.76506 5.60675 7.76506 6.79602C7.76506 7.9853 8.71015 8.9494 9.87597 8.9494Z"/>
</svg>

<svg xmlns="http://www.w3.org/2000/svg" class="icon icon-accordion icon-map-pin" viewBox="0 0 20 20"><path fill-rule="evenodd" d="m9.91 18.59 5.036-8.78c2.228-3.886-.525-8.777-4.942-8.777-4.385 0-7.147 4.822-4.992 8.713zM10.004 0C4.845 0 1.593 5.673 4.13 10.255l5.212 9.41a.64.64 0 0 0 1.12.009l5.358-9.342C18.445 5.755 15.202 0 10.004 0"/><path d="M13 6.796c0 1.76-1.399 3.187-3.124 3.187S6.752 8.556 6.752 6.796s1.399-3.187 3.124-3.187S13 5.036 13 6.796M9.876 8.949c1.166 0 2.11-.964 2.11-2.153s-.944-2.153-2.11-2.153-2.11.964-2.11 2.153.944 2.153 2.11 2.153"/></svg>
